IMG/behance.svg

<?xml version="1.0" encoding="utf-8"?>

<!-- Uploaded to: SVG Repo, www.svgrepo.com, Generator: SVG Repo Mixer Tools -->
<svg fill="#000000" version="1.1" id="Layer_1" xmlns="http://www.w3.org/2000/svg" xmlns:xlink="http://www.w3.org/1999/xlink" 
	 viewBox="0 0 512 512" xml:space="preserve">
<g>
	<path d="M256,0C114.6,0,0,114.6,0,256s114.6,256,256,256s256-114.6,256-256S397.4,0,256,0z M415.8,415.7
		c-20.8,20.8-44.9,37.1-71.8,48.4c-27.8,11.8-57.4,17.7-88,17.7c-30.5,0-60.1-6-88-17.7c-26.9-11.4-51.1-27.7-71.8-48.4
		c-20.8-20.8-37.1-44.9-48.4-71.8C36,316.1,30,286.5,30,256s6-60.1,17.7-88c11.4-26.9,27.7-51.1,48.4-71.8
		c20.9-20.8,45-37.1,71.9-48.5C195.9,36,225.5,30,256,30s60.1,6,88,17.7c26.9,11.4,51.1,27.7,71.8,48.4
		c20.8,20.8,37.1,44.9,48.4,71.8c11.8,27.8,17.7,57.4,17.7,88c0,30.5-6,60.1-17.7,88C452.8,370.8,436.5,395,415.8,415.7z"/>
	<rect x="291.6" y="182.3" width="67.8" height="19.7"/>
	<path d="M373.6,235.8c-5.3-7.9-12-13.7-20.2-17.3c-8.1-3.7-17.3-5.5-27.6-5.4c-17.1,0-31,5.4-41.8,16.2
		c-10.7,10.8-16.1,26.3-16.1,46.6c0,21.6,6,37.2,17.9,46.8c11.9,9.6,25.6,14.4,41.2,14.4c18.9,0,33.5-5.7,44-17.1
		c6.7-7.2,10.5-14.3,11.3-21.2h-31.2c-1.8,3.5-3.9,6.2-6.3,8.1c-4.4,3.6-10.1,5.4-17,5.4c-6.6,0-12.2-1.5-16.9-4.4
		c-7.7-4.7-11.7-13-12.2-24.7h85.2c0.2-10.1-0.2-17.8-1-23.2C381.5,250.8,378.4,242.7,373.6,235.8z M299.5,263
		c1.2-7.6,3.9-13.6,8.2-18.1c4.3-4.4,10.4-6.7,18.2-6.7c7.2,0,13.3,2.1,18.2,6.3c4.8,4.2,7.5,10.4,8.1,18.5H299.5z"/>
	<path d="M233.3,248.3c5.3-2.7,9.4-5.7,12.1-9c4.9-5.9,7.3-13.7,7.3-23.3c0-9.4-2.4-17.5-7.2-24.2c-8.1-11-21.8-16.6-41-16.9H128
		v158.3h71.2c8.1,0,15.5-0.7,22.4-2.1c6.9-1.5,12.9-4.1,17.9-8c4.5-3.3,8.2-7.5,11.2-12.4c4.8-7.4,7.1-15.8,7.1-25.2
		c0-9.1-2.1-16.8-6.2-23.2C247.5,255.9,241.4,251.3,233.3,248.3z M159.5,202.4h34.4c7.6,0,13.8,0.9,18.7,2.5
		c5.7,2.4,8.5,7.2,8.5,14.6c0,6.6-2.1,11.3-6.4,13.9c-4.3,2.6-9.8,3.9-16.7,3.9h-38.5V202.4z M214,302.8c-3.8,1.9-9.1,2.8-16,2.8
		h-38.5v-42.2h39c6.8,0.1,12,1,15.8,2.7c6.8,3.1,10.1,8.8,10.1,17C224.4,292.8,221,299.3,214,302.8z"/>
</g>
</svg>

<svg width="512" height="512" viewBox="0 0 512 512" fill="none" xmlns="http://www.w3.org/2000/svg">
<path d="M256 0C114.6 0 0 114.6 0 256C0 397.4 114.6 512 256 512C397.4 512 512 397.4 512 256C512 114.6 397.4 0 256 0ZM415.8 415.7C395 436.5 370.9 452.8 344 464.1C316.2 475.9 286.6 481.8 256 481.8C225.5 481.8 195.9 475.8 168 464.1C141.1 452.7 116.9 436.4 96.2 415.7C75.4 394.9 59.1 370.8 47.8 343.9C36 316.1 30 286.5 30 256C30 225.5 36 195.9 47.7 168C59.1 141.1 75.4 116.9 96.1 96.2C117 75.4 141.1 59.1 168 47.7C195.9 36 225.5 30 256 30C286.5 30 316.1 36 344 47.7C370.9 59.1 395.1 75.4 415.8 96.1C436.6 116.9 452.9 141 464.2 167.9C476 195.7 481.9 225.3 481.9 255.9C481.9 286.4 475.9 316 464.2 343.9C452.8 370.8 436.5 395 415.8 415.7Z" fill="white"/>
<path d="M359.4 182.3H291.6V202H359.4V182.3Z" fill="white"/>
<path d="M373.6 235.8C368.3 227.9 361.6 222.1 353.4 218.5C345.3 214.8 336.1 213 325.8 213.1C308.7 213.1 294.8 218.5 284 229.3C273.3 240.1 267.9 255.6 267.9 275.9C267.9 297.5 273.9 313.1 285.8 322.7C297.7 332.3 311.4 337.1 327 337.1C345.9 337.1 360.5 331.4 371 320C377.7 312.8 381.5 305.7 382.3 298.8H351.1C349.3 302.3 347.2 305 344.8 306.9C340.4 310.5 334.7 312.3 327.8 312.3C321.2 312.3 315.6 310.8 310.9 307.9C303.2 303.2 299.2 294.9 298.7 283.2H383.9C384.1 273.1 383.7 265.4 382.9 260C381.5 250.8 378.4 242.7 373.6 235.8ZM299.5 263C300.7 255.4 303.4 249.4 307.7 244.9C312 240.5 318.1 238.2 325.9 238.2C333.1 238.2 339.2 240.3 344.1 244.5C348.9 248.7 351.6 254.9 352.2 263H299.5Z" fill="white"/>
<path d="M233.3 248.3C238.6 245.6 242.7 242.6 245.4 239.3C250.3 233.4 252.7 225.6 252.7 216C252.7 206.6 250.3 198.5 245.5 191.8C237.4 180.8 223.7 175.2 204.5 174.9H128V333.2H199.2C207.3 333.2 214.7 332.5 221.6 331.1C228.5 329.6 234.5 327 239.5 323.1C244 319.8 247.7 315.6 250.7 310.7C255.5 303.3 257.8 294.9 257.8 285.5C257.8 276.4 255.7 268.7 251.6 262.3C247.5 255.9 241.4 251.3 233.3 248.3ZM159.5 202.4H193.9C201.5 202.4 207.7 203.3 212.6 204.9C218.3 207.3 221.1 212.1 221.1 219.5C221.1 226.1 219 230.8 214.7 233.4C210.4 236 204.9 237.3 198 237.3H159.5V202.4ZM214 302.8C210.2 304.7 204.9 305.6 198 305.6H159.5V263.4H198.5C205.3 263.5 210.5 264.4 214.3 266.1C221.1 269.2 224.4 274.9 224.4 283.1C224.4 292.8 221 299.3 214 302.8Z" fill="white"/>
</svg>
